!!!!SEGMENT: pl-kk--kk-i-84--003_bellinzani-paolo-benedetto--missa-in-dmol-sanctus.krn
!!!cenid: 17xx:2310
!!!COM: Bellinzani, Paolo Benedetto
!!!COM-rismID: pe30000281
!!!CDT: 1682-1757/02/26
!!!CNT: Italian
!!!OPR: Missa in Dmol
!!!OTL: Sanctus
!!!OMV: 003
!!!PDT:
!!!AGN: Sacred; Mass
!!!SMS-siglum: PL-Kk
!!!SMS-shelfmark: Kk.I.84
!!!SMS-shelfwork: 001-003 M
!!!SMS-variant:
!!!SMS-altvar:
!!!NIFC-rismSourceID: 1001154030
!!!NIFC-islandoraID: pl-kk:2905
!!!URL-pdf-islandora: https://repozytorium.nifc.pl/islandora/object/pl-kk%3A2905/datastream/PDF/view
!!!URL-scan: https://polish.musicsources.pl/pl/lokalizacje/galeria/rekopisy/6144 @EN{Scan on Polish Music Sources Website} @PL{Skany w portalu Dziedzictwo Muzyki Polskiej w otwartym dostępie}
!!!ONB-nifc: UWAGA: części Mszy: 1. Kyrie, 2. Et in terra, 3. Sanctus, 4. Agnus Dei.
!!!AIN: 1 alto 2 empty 1 tenor 1 vox
!!!key:
**kern	**fba	**text	**kern	**fba	**text	**kern	**text	**dynam	**kern	**text	**dynam	**kern	**text	**dynam
*part5	*part5	*part5	*part4	*part4	*part4	*part3	*part3	*part3	*part2	*part2	*part2	*part1	*part1	*part1
*staff5	*staff5	*staff5	*staff4	*staff4	*staff4	*staff3	*staff3	*	*staff2	*staff2	*	*staff1	*staff1	*
*Iempty	*	*	*Iempty	*	*	*Itenor	*	*	*Ialto	*	*	*Ivox	*	*
*I"Baſso Ripieno.	*	*	*I"Baſso.	*	*	*I"Tenore	*	*	*I"Alto.	*	*	*I"Canto.	*	*
*I'b rip	*	*	*I'B	*	*	*I'T	*	*	*I'A	*	*	*I'S	*	*
*clefC3	*	*	*clefF4	*	*	*clefC4	*	*	*clefC3	*	*	*clefC1	*	*
*k[]	*	*	*k[]	*	*	*k[]	*	*	*k[]	*	*	*k[]	*	*
*d:	*	*	*d:	*	*	*d:	*	*	*d:	*	*	*d:	*	*
*M2/1	*	*	*M2/1	*	*	*M2/1	*	*	*M2/1	*	*	*M2/1	*	*
*met(C|)	*	*	*met(C|)	*	*	*met(C|)	*	*	*met(C|)	*	*	*met(C|)	*	*
=1-	=1-	=1-	=1-	=1-	=1-	=1-	=1-	=1-	=1-	=1-	=1-	=1-	=1-	=1-
!	!	!	!LO:TX:a:t=Lentè	!	!	!	!	!	!LO:TX:a:t=Lente	!	!	!	!	!
!	!	!	!LO:TX:t=P:problem=kreska pseudotaktowa	!	!	!	!	!LO:DY:a:t=Fortè	!	!	!LO:DY:a:t=For.	!LO:TX:t=P:problem=kreska pseudotaktowa	!	!LO:DY:a:t=Forte
2r	.	.	00r	.	.	00r	.	f	2r	.	f	0r	.	f
*2\right	*	*	*	*	*	*	*	*	*2\right	*	*	*	*	*
!	!	!	!	!	!	!	!	!	!LO:TX:t=P:problem=kreska pseudotaktowa	!	!	!	!	!
2f\	.	San-	.	.	.	.	.	.	2fn\	San-	.	.	.	.
2g\	.	.	.	.	.	.	.	.	2g\	.	.	.	.	.
!LO:TX:t=P:problem=kreska pseudotaktowa	!	!	!	!	!	!	!	!	!LO:TX:t=P:problem=kreska pseudotaktowa	!	!	!	!	!
2a\	.	.	.	.	.	.	.	.	2a\	.	.	.	.	.
=2-	=2-	=2-	=2-	=2-	=2-	=2-	=2-	=2-	=2-	=2-	=2-	=2-	=2-	=2-
!LO:TX:t=P:global:problem=oddech jako rozdzielacz słów	!	!	!	!	!	!	!	!	!LO:TX:t=P:global:problem=oddech jako rozdzielacz słów	!	!	!	!	!
2d,<\	.	-ctus	.	.	.	.	.	.	2d,<\	-ctus	.	2r	.	.
*	*	*	*	*	*	*	*	*	*	*	*	*2\right	*	*
!	!	!	!	!	!	!	!	!	!	!	!	!LO:TX:t=P:problem=kreska pseudotaktowa	!	!
1a	#4	.	.	.	.	.	.	.	1a	San-	.	2cc#X\	San-	.
.	.	.	.	.	.	.	.	.	.	.	.	2dd\	.	.
!LO:TX:t=P:problem=kreska pseudotaktowa	!	!	!	!	!	!	!	!	!LO:TX:t=P:problem=kreska pseudotaktowa	!	!	!LO:TX:t=P:problem=kreska pseudotaktowa	!	!
[<2g\	6	.	.	.	.	.	.	.	[<2g\	.	.	2ee\	.	.
=3-	=3-	=3-	=3-	=3-	=3-	=3-	=3-	=3-	=3-	=3-	=3-	=3-	=3-	=3-
!	!	!	!	!	!	!LO:TX:t=P:problem=kreska pseudotaktowa	!	!	!	!	!	!LO:TX:t=P:global:problem=oddech jako rozdzielacz słów	!	!
2g\]	.	.	2r	.	.	0r	.	.	2g\]	.	.	2a,<\	-ctus	.
*clefF4	*	*	*	*	*	*	*	*	*	*	*	*	*	*
*	*	*	*2\right	*	*	*	*	*	*	*	*	*	*ij	*
!LO:TX:t=P:problem=kreska pseudotaktowa	!	!	!LO:TX:t=P:problem=kreska pseudotaktowa	!	!	!	!	!	!	!	!	!	!	!
2F\	.	San-	2F\	.	San-	.	.	.	2f\	.	.	1dd	San-	.
!	!	!	!	!	!	!	!	!	!LO:TX:t=P:problem=kreska pseudotaktowa	!	!	!	!	!
2G\	.	.	2G\	.	.	.	.	.	1e	.	.	.	.	.
!LO:TX:t=P:problem=kreska pseudotaktowa	!	!	!LO:TX:t=P:problem=kreska pseudotaktowa	!	!	!	!	!	!	!	!	!LO:TX:t=P:problem=kreska pseudotaktowa	!	!
2A\	.	.	2A\	.	.	.	.	.	.	.	.	2cc#X\	.	.
=4-	=4-	=4-	=4-	=4-	=4-	=4-	=4-	=4-	=4-	=4-	=4-	=4-	=4-	=4-
!	!	!	!LO:TX:t=P:global:problem=oddech jako rozdzielacz słów	!	!	!	!	!	!	!	!	!	!	!
2D,</	.	-ct(us)	2D,</	.	-ctus	2r	.	.	2f,<\	-ctus	.	2dd\	-ctus	.
*	*	*ij	*	*	*	*2\right	*	*	*	*	*	*	*Xij	*
!	!	!	!	!	!	!LO:TX:t=P:problem=kreska pseudotaktowa	!	!	!LO:TX:t=P:problem=kreska pseudotaktowa	!	!	!LO:TX:t=P:problem=kreska pseudotaktowa	!	!
1A	.	San-	1A	.	San-	2c#X\	San-	.	2e\	San-	.	2r	.	.
.	.	.	.	.	.	2d\	.	.	2d\	.	.	1b-X	San-	.
!	!	!	!	!	!	!LO:TX:t=P:problem=kreska pseudotaktowa	!	!	!LO:TX:t=P:problem=kreska pseudotaktowa	!	!	!	!	!
1G\	.	.	1G\	.	.	2e\	.	.	2g\	.	.	.	.	.
=5-	=5-	=5-	=5-	=5-	=5-	=5-	=5-	=5-	=5-	=5-	=5-	=5-	=5-	=5-
*	*	*	*	*	*	*	*	*	*	*	*	*lig	*	*
!	!	!	!	!	!	!LO:TX:t=P:global:problem=oddech jako rozdzielacz słów	!	!	!	!	!	!	!	!
.	.	.	.	.	.	2A,</	-ctus	.	2c#X/	.	.	1a	.	.
*	*	*	*	*	*	*	*ij	*	*	*	*	*	*	*
!LO:TX:t=P:problem=kreska pseudotaktowa	!	!	!LO:TX:t=P:problem=kreska pseudotaktowa	!	!	!	!	!	!LO:TX:t=P:problem=kreska pseudotaktowa	!	!	!	!	!
2F\	.	.	2F\	.	.	1d	San-	.	2d\	.	.	.	.	.
1E	.	.	1E	.	.	.	.	.	1e	.	.	1g	.	.
.	.	.	.	.	.	2c#X\	.	.	.	.	.	.	.	.
!	!	!	!	!	!	!LO:TX:t=P:problem=kreska pseudotaktowa	!	!	!	!	!	!	!	!
*	*	*	*	*	*	*	*	*	*	*	*	*Xlig	*	*
=6-	=6-	=6-	=6-	=6-	=6-	=6-	=6-	=6-	=6-	=6-	=6-	=6-	=6-	=6-
!	!	!	!	!	!	!	!	!	!	!	!	!LO:TX:t=P:problem=kreska pseudotaktowa	!	!
2F,<\	.	-ctus	2F,<\	.	-ctus	1d,<	-ctus	.	2A,</	-ctus	.	1f	-ctus	.
*	*	*Xij	*	*	*	*	*Xij	*	*	*	*	*	*	*
!	!	!	!LO:TX:t=P:problem=kreska pseudotaktowa	!	!	!	!	!	!	!	!	!	!	!
1D	.	Do-	[<2D/	.	Do-	.	.	.	4a\	Do-	.	.	.	.
!	!	!	!	!	!	!	!	!	!LO:TX:t=P:problem=kreska pseudotaktowa	!	!	!	!	!
.	.	.	.	.	.	.	.	.	4a\	-mi-	.	.	.	.
.	.	.	2D/]	.	.	2e\	Do-	.	2g,<\	-n(us)	.	2b-X\	Do-	.
!LO:TX:t=P:problem=kreska pseudotaktowa	!	!	!	!	!	!	!	!	!	!	!	!	!	!
2C#X/	.	(mi)nus	4C#X/	6	mi-	4en\	-mi-	.	4g\	De-	.	4b-\	-mi-	.
!	!	!	!	!	!	!LO:TX:t=P:problem=kreska pseudotaktowa	!	!	!LO:TX:t=P:problem=kreska pseudotaktowa	!	!	!LO:TX:t=P:problem=kreska pseudotaktowa	!	!
.	.	.	4C#/	.	-n(us)	4e\	-n(us)	.	4g\	-us	.	4b-\	-n(us)	.
=7-	=7-	=7-	=7-	=7-	=7-	=7-	=7-	=7-	=7-	=7-	=7-	=7-	=7-	=7-
2D/	.	DE-	2D/	.	De-	2f\	De-	.	(2f\	Sab-	.	2a\	De-	.
!	!	!	!LO:TX:t=P:problem=kreska pseudotaktowa	!	!	!	!	!	!LO:TX:t=P:problem=kreska pseudotaktowa	!	!	!LO:TX:t=P:problem=kreska pseudotaktowa	!	!
2Cny/	.	-(us)	2Cn/	6	-us	2A/	-us	.	2e\)	.	.	2a\	-us	.
1BB-X	.	Sabba-	2.BB-X/	76	Sab-	2.d\	Sab-	.	2f\	.	.	2a\	Sab-	.
.	.	.	.	.	.	.	.	.	2d\	-ba-	.	2g\	-ba-	.
.	.	.	4BB-/	.	-ba-	4d\	-ba-	.	.	.	.	.	.	.
=8-	=8-	=8-	=8-	=8-	=8-	=8-	=8-	=8-	=8-	=8-	=8-	=8-	=8-	=8-
!LO:N:vis=1	!	!	!	!	!	!	!	!	!	!	!	!	!	!
0AA;	.	-oth.	0AA;>	.	-oth.	0c#X;	-oth.	.	0e;	-oth	.	0a;	-oth.	.
=9||-	=9||-	=9||-	=9||-	=9||-	=9||-	=9||-	=9||-	=9||-	=9||-	=9||-	=9||-	=9||-	=9||-	=9||-
*M2/1	*	*	*M2/1	*	*	*M2/1	*	*	*M2/1	*	*	*M2/1	*	*
*met(C|)	*	*	*met(C|)	*	*	*met(C|)	*	*	*met(C|)	*	*	*met(C|)	*	*
!	!	!	!	!	!	!LO:TX:t=P:problem=kreska pseudotaktowa	!	!	!LO:TX:t=P:problem=kreska pseudotaktowa	!	!	!LO:TX:t=P:problem=kreska pseudotaktowa	!	!
!	!	!	!	!	!	!	!	!	!LO:LB:g=original	!	!	!LO:LB:g=original	!	!
2A\	.	Ple-	1A	.	Ple-	0r	.	.	1r	.	.	1r	.	.
2A\	.	-ni	.	.	.	.	.	.	.	.	.	.	.	.
1F#X	.	sunt	2F#X\	.	-ni	.	.	.	2a\	Ple-	.	1dd	Ple-	.
!	!	!	!LO:TX:t=P:problem=kreska pseudotaktowa	!	!	!	!	!	!LO:TX:t=P:problem=kreska pseudotaktowa	!	!	!	!	!
.	.	.	2F#\	.	sunt	.	.	.	2a\	-ni	.	.	.	.
=10-	=10-	=10-	=10-	=10-	=10-	=10-	=10-	=10-	=10-	=10-	=10-	=10-	=10-	=10-
!LO:TX:t=P:problem=kreska pseudotaktowa	!	!	!LO:LB:g=original	!	!	!	!	!	!	!	!	!	!	!
1D	.	Cae-	1D	.	Cae-	1d	Ple-	.	1f#X	sunt	.	2dd\	-ni	.
!	!	!	!	!	!	!	!	!	!	!	!	!LO:TX:t=P:problem=kreska pseudotaktowa	!	!
.	.	.	.	.	.	.	.	.	.	.	.	2dd\	sunt	.
!LO:LB:g=original	!	!	!	!	!	!	!	!	!	!	!	!LO:N:acc=#	!	!
1G	.	-li	1.G	.	-li	2d\	-ni	.	2d\	cae-	.	1bn	cae-	.
!	!	!	!	!	!	!LO:TX:t=P:problem=kreska pseudotaktowa	!	!	!LO:TX:t=P:problem=kreska pseudotaktowa	!	!	!	!	!
.	.	.	.	.	.	2d\	sunt	.	2d\	-li	.	.	.	.
=11-	=11-	=11-	=11-	=11-	=11-	=11-	=11-	=11-	=11-	=11-	=11-	=11-	=11-	=11-
!	!	!	!	!	!	!LO:LB:g=original	!	!	!	!	!	!	!	!
2G\	.	et	.	.	.	1Bn	Cae-	.	1g	Ple-	.	2g,<\	-li	.
!LO:TX:t=P:problem=kreska pseudotaktowa	!	!	!LO:TX:t=P:problem=kreska pseudotaktowa	!	!	!	!	!	!	!	!	!LO:TX:t=P:problem=kreska pseudotaktowa	!	!
2G\	.	ter-	2G\	.	et	.	.	.	.	.	.	2g\	et	.
1En	.	-ra	1E	.	ter-	2G/	-li	.	2g,<\	-ni	.	1ccny	ter-	.
!	!	!	!	!	!	!LO:TX:t=P:problem=kreska pseudotaktowa	!	!	!	!	!	!	!	!
.	.	.	.	.	.	2G/	et	.	2g\	sunt	.	.	.	.
=12-	=12-	=12-	=12-	=12-	=12-	=12-	=12-	=12-	=12-	=12-	=12-	=12-	=12-	=12-
!LO:TX:t=P:problem=kreska pseudotaktowa	!	!	!LO:TX:t=P:problem=kreska pseudotaktowa	!	!	!	!	!	!	!	!	!	!	!
1C	.	.	1C	.	-ra	1cny	ter-	.	1e	cae-	.	2cc,<\	-ra	.
.	.	.	.	.	.	.	.	.	.	.	.	2cc\	Ple-	.
!	!	!	!	!	!	!	!	!	!LO:TX:t=P:problem=kreska pseudotaktowa	!	!	!	!	!
1Fny	.	glo-	1Fny	.	glo-	2c,<\	-ra	.	1cny,<	-li	.	1a	-ni	.
!	!	!	!	!	!	!LO:TX:t=P:problem=kreska pseudotaktowa	!	!	!	!	!	!	!	!
.	.	.	.	.	.	2c\	et	.	.	.	.	.	.	.
=13-	=13-	=13-	=13-	=13-	=13-	=13-	=13-	=13-	=13-	=13-	=13-	=13-	=13-	=13-
!	!	!	!	!	!	!	!	!	!LO:TX:t=P:problem=kreska pseudotaktowa	!	!	!LO:TX:t=P:problem=kreska pseudotaktowa	!	!
2F\	.	-ri-	2F\	.	-ri-	1A	ter-	.	[<1fny	et	.	1f	sunt	.
!	!	!	!LO:TX:t=P:problem=kreska pseudotaktowa	!	!	!	!	!	!	!	!	!	!	!
2F\	.	-a	2F\	.	-a	.	.	.	.	.	.	.	.	.
2D\	.	tu-	2D\	.	tu-	2F,</	-ra	.	2f]	.	.	2b-X\	Cae-	.
!LO:TX:t=P:problem=kreska pseudotaktowa	!	!	!	!	!	!LO:TX:t=P:problem=kreska pseudotaktowa	!	!	!	!	!	!	!	!
2E\	.	.	2E\	.	.	[<2c\	glo-	.	1g\	Ter-	.	4b-,<\	-li	.
!	!	!	!	!	!	!	!	!	!	!	!	!LO:TX:t=P:problem=kreska pseudotaktowa	!	!
.	.	.	.	.	.	.	.	.	.	.	.	4b-\	et	.
=14-	=14-	=14-	=14-	=14-	=14-	=14-	=14-	=14-	=14-	=14-	=14-	=14-	=14-	=14-
2F\	.	.	1F	.	.	2c\]	.	.	.	.	.	1a	ter-	.
2FF/	.	.	.	.	.	4c\	-ri-	.	1f	.	.	.	.	.
!	!	!	!	!	!	!LO:TX:t=P:problem=kreska pseudotaktowa	!	!	!	!	!	!	!	!
.	.	.	.	.	.	4c\	-a	.	.	.	.	.	.	.
!LO:TX:t=P:problem=kreska pseudotaktowa	!	!	!LO:TX:t=P:problem=kreska pseudotaktowa	!	!	!	!	!	!	!	!	!	!	!
1C	.	-a	1C	.	-a	2c\	tu-	.	.	.	.	2g,</	-ra	.
!	!	!	!	!	!	!LO:TX:t=P:problem=kreska pseudotaktowa	!	!	!LO:TX:t=P:problem=kreska pseudotaktowa	!	!	!LO:TX:t=P:problem=kreska pseudotaktowa	!	!
.	.	.	.	.	.	2c\	-a	.	2e,<\	-ra	.	(>2g/	glo-	.
=15-	=15-	=15-	=15-	=15-	=15-	=15-	=15-	=15-	=15-	=15-	=15-	=15-	=15-	=15-
2r	.	.	2r	.	.	2r	.	.	2r	.	.	2cc\	.	.
!	!	!	!	!	!	!LO:TX:t=P:problem=kreska pseudotaktowa	!	!	!	!	!	!LO:TX:t=P:problem=kreska pseudotaktowa	!	!
2AA/	.	glo-	(<2AA/	.	glo-	2e\	glo-	.	1a	glo-	.	2cc#X\)	.	.
!	!	!	!LO:TX:t=P:problem=kreska pseudotaktowa	!	!	!	!	!	!	!	!	!	!	!
1D	.	.	1D)	.	.	2f\	.	.	.	.	.	4dd\	-ri-	.
.	.	.	.	.	.	.	.	.	.	.	.	4d/	-a	.
!	!	!	!	!	!	!LO:TX:t=P:problem=kreska pseudotaktowa	!	!	!	!	!	!	!	!
.	.	.	.	.	.	[<2d\	.	.	2f\	.	.	1a\	Tu-	.
=16-	=16-	=16-	=16-	=16-	=16-	=16-	=16-	=16-	=16-	=16-	=16-	=16-	=16-	=16-
!LO:TX:t=P:problem=kreska pseudotaktowa	!	!	!	!	!	!	!	!	!	!	!	!	!	!
1G	.	-ria-	2G|\	.	-ri-	2d\]	.	.	2.b-X\	.	.	.	.	.
.	.	.	2G|,<\	.	-a	4e\	-ri-	.	.	.	.	1g	.	.
!	!	!	!	!	!	!LO:TX:t=P:problem=kreska pseudotaktowa	!	!	!	!	!	!	!	!
.	.	.	.	.	.	4d\	-a	.	4b-\	-ri-	.	.	.	.
!LO:TX:t=P:problem=kreska pseudotaktowa	!	!	!	!	!	!	!	!	!	!	!	!	!	!
[<1A	.	tu-	0A	.	tu-	2c#X\	Tu-	.	2e,<\	-a	.	.	.	.
!	!	!	!	!	!	!	!	!	!	!	!	!LO:TX:t=P:problem=kreska pseudotaktowa	!	!
.	.	.	.	.	.	2d\	.	.	1d\	Tu-	.	2f/	.	.
=17-	=17-	=17-	=17-	=17-	=17-	=17-	=17-	=17-	=17-	=17-	=17-	=17-	=17-	=17-
1A]	.	.	.	.	.	1A	.	.	.	.	.	1e	.	.
.	.	.	.	.	.	.	.	.	2c#X\	.	.	.	.	.
!LO:N:vis=0	!	!	!LO:N:vis=0	!	!	!LO:N:vis=0	!	!	!LO:N:vis=0	!	!	!LO:N:vis=0	!	!
1D;>	.	-a	1D;>	.	-â.	1A;	-â.	.	1d;	-a	.	1f#X;>	-a.	.
=18||-	=18||-	=18||-	=18||-	=18||-	=18||-	=18||-	=18||-	=18||-	=18||-	=18||-	=18||-	=18||-	=18||-	=18||-
*M3/2	*	*	*M3/2	*	*	*M3/2	*	*	*M3/2	*	*	*M3/2	*	*
!	!	!	!	!	!	!LO:TX:t=P:problem=kreska pseudotaktowa	!	!	!LO:TX:t=P:problem=kreska pseudotaktowa	!	!	!LO:TX:t=P:problem=kreska pseudotaktowa	!	!
!	!	!	!	!	!	!LO:LB:g=original	!	!	!LO:LB:g=original	!	!	!LO:LB:g=original	!	!
(4D\	.	O-	(4D\	.	O-	[<1.d	O-	.	1.f	O-	.	1.a	O-	.
4C#X\	.	.	4C#X\	.	.	.	.	.	.	.	.	.	.	.
4D\	.	.	4D\	.	.	.	.	.	.	.	.	.	.	.
4E\)	.	.	4E\)	.	.	.	.	.	.	.	.	.	.	.
4F\	.	.	4F\	.	.	.	.	.	.	.	.	.	.	.
!LO:TX:t=P:problem=kreska pseudotaktowa	!	!	!LO:TX:t=P:problem=kreska pseudotaktowa	!	!	!	!	!	!	!	!	!	!	!
4G\	.	.	4G\	.	.	.	.	.	.	.	.	.	.	.
=19-	=19-	=19-	=19-	=19-	=19-	=19-	=19-	=19-	=19-	=19-	=19-	=19-	=19-	=19-
4A\	.	-san-	4A\	.	-san-	2d\]	.	.	2e\	-san-	.	2a\	-san-	.
4AA/	.	.	4AA/	.	.	.	.	.	.	.	.	.	.	.
4C#X/	.	.	4C#X/	.	.	2c#X\	-san-	.	2e,<\	-na	.	2a,<\	-na	.
4BBny/	.	.	4BBny/	.	.	.	.	.	.	.	.	.	.	.
*	*	*	*	*	*	*	*	*	*	*ij	*	*	*	*
!	!	!	!	!	!	!LO:TX:t=P:problem=kreska pseudotaktowa	!	!	!LO:TX:t=P:problem=kreska pseudotaktowa	!	!	!LO:TX:t=P:problem=kreska pseudotaktowa	!	!
4C#/	.	.	4C#/	.	.	2c#\	-na	.	2e\	O-	.	2a\	O-	.
!LO:TX:t=P:problem=kreska pseudotaktowa	!	!	!LO:TX:t=P:problem=kreska pseudotaktowa	!	!	!	!	!	!	!	!	!	!	!
4AA/	.	.	4AA/	.	.	.	.	.	.	.	.	.	.	.
=20-	=20-	=20-	=20-	=20-	=20-	=20-	=20-	=20-	=20-	=20-	=20-	=20-	=20-	=20-
!	!	!	!LO:LB:g=original	!	!	!	!	!	!	!	!	!	!	!
4D\	.	.	(4D\	.	.	1d	in	.	(2.f\	-san-	.	2.a\	-san-	.
!LO:SIC:v:s=4C#\	!	!	!	!	!	!	!	!	!	!	!	!	!	!
4Cny\	.	.	4C#X\	.	.	.	.	.	.	.	.	.	.	.
4D\	.	.	4D\	.	.	.	.	.	.	.	.	.	.	.
4E\	.	.	4E\	.	.	.	.	.	4g\)	.	.	4g,</	-na	.
!	!	!	!	!	!	!	!	!	!LO:TX:t=P:problem=kreska pseudotaktowa	!	!	!LO:TX:t=P:problem=kreska pseudotaktowa	!	!
4F\	.	-na	4F\)	.	-na	2d\	ex-	.	2a\	-na	.	2fny/	in	.
*	*	*	*	*	*	*	*	*	*	*Xij	*	*	*	*
!LO:TX:t=P:problem=kreska pseudotaktowa	!	!	!LO:TX:t=P:problem=kreska pseudotaktowa	!	!	!	!	!	!	!	!	!	!	!
4D\	.	.	4D\	.	.	.	.	.	.	.	.	.	.	.
=21-	=21-	=21-	=21-	=21-	=21-	=21-	=21-	=21-	=21-	=21-	=21-	=21-	=21-	=21-
4E\	.	in	4E|\	.	in	2cn\	-cel-	.	2e\	in	.	(2g\	ex-	.
4C\	.	ex-	4Cny|\	.	ex-	.	.	.	.	.	.	.	.	.
4F\	.	.	4F\	.	-cel-	2c,<\	-ſis	.	2cny\	ex-	.	1a)	.	.
4C/	.	.	4C/	.	.	.	.	.	.	.	.	.	.	.
!	!	!	!	!	!	!LO:TX:t=P:problem=kreska pseudotaktowa	!	!	!LO:TX:t=P:problem=kreska pseudotaktowa	!	!	!	!	!
4AA/	.	.	4AA/	.	.	2c\	in	.	[<2f\	-cel-	.	.	.	.
!LO:TX:t=P:problem=kreska pseudotaktowa	!	!	!LO:TX:t=P:problem=kreska pseudotaktowa	!	!	!	!	!	!	!	!	!	!	!
4FF/	.	.	4FF/	.	.	.	.	.	.	.	.	.	.	.
=22-	=22-	=22-	=22-	=22-	=22-	=22-	=22-	=22-	=22-	=22-	=22-	=22-	=22-	=22-
2BB-X/	.	-cel-	2BB-X/	.	.	2d\	ex-	.	1f]	.	.	1.g	-cel-	.
!LO:TX:t=P:problem=kreska pseudotaktowa	!	!	!LO:TX:t=P:problem=kreska pseudotaktowa	!	!	!LO:TX:t=P:problem=kreska pseudotaktowa	!	!	!	!	!	!	!	!
1C,<	.	sis.	1C,<	.	sis.	1c	-cel-	.	.	.	.	.	.	.
!	!	!	!	!	!	!	!	!	!LO:TX:t=P:problem=kreska pseudotaktowa	!	!	!	!	!
.	.	.	.	.	.	.	.	.	2e\	.	.	.	.	.
=23-	=23-	=23-	=23-	=23-	=23-	=23-	=23-	=23-	=23-	=23-	=23-	=23-	=23-	=23-
4F\	.	O-	4F\	.	O-	1c,<	-ſis.	.	2f,<\	sis	.	2a,<\	-ſis.	.
4E\	.	.	(4E\	.	.	.	.	.	.	.	.	.	.	.
!	!	!	!	!	!	!	!	!	!LO:TX:t=P:problem=kreska pseudotaktowa	!	!	!LO:TX:t=P:problem=kreska pseudotaktowa	!	!
4F\	.	.	4F\	.	.	.	.	.	[<1f	O-	.	1a	O-	.
4G\	.	.	4G\)	.	.	.	.	.	.	.	.	.	.	.
!	!	!	!	!	!	!LO:TX:t=P:problem=kreska pseudotaktowa	!	!	!	!	!	!	!	!
4A\	.	.	4A\	.	.	2c\	O-	.	.	.	.	.	.	.
!LO:TX:t=P:problem=kreska pseudotaktowa	!	!	!LO:TX:t=P:problem=kreska pseudotaktowa	!	!	!	!	!	!	!	!	!	!	!
4F\	.	.	4F\	.	.	.	.	.	.	.	.	.	.	.
=24-	=24-	=24-	=24-	=24-	=24-	=24-	=24-	=24-	=24-	=24-	=24-	=24-	=24-	=24-
4c\	.	-san-	4c\	.	-san-	1c	-san-	.	2f\]	.	.	2.g\	-san-	.
4d\	.	.	4d\	.	.	.	.	.	.	.	.	.	.	.
4c\	.	.	4c\	.	.	.	.	.	2e\	-san-	.	.	.	.
4B-X\	.	.	4B-X\	.	.	.	.	.	.	.	.	4g\	-na	.
!	!	!	!	!	!	!LO:TX:t=P:problem=kreska pseudotaktowa	!	!	!	!	!	!LO:TX:t=P:problem=kreska pseudotaktowa	!	!
4A\	.	.	4A\	.	.	2c\	-na	.	2f\	-na	.	2a\	in	.
!LO:TX:t=P:problem=kreska pseudotaktowa	!	!	!LO:TX:t=P:problem=kreska pseudotaktowa	!	!	!	!	!	!	!	!	!	!	!
4F\	.	.	4F\	.	.	.	.	.	.	.	.	.	.	.
=25-	=25-	=25-	=25-	=25-	=25-	=25-	=25-	=25-	=25-	=25-	=25-	=25-	=25-	=25-
1B-X	.	.	1B-X	.	.	1d	in	.	1f	in	.	2f/	ex-	.
.	.	.	.	.	.	.	.	.	.	.	.	1b-X	-cel-	.
!LO:TX:t=P:problem=kreska pseudotaktowa	!	!	!LO:TX:t=P:problem=kreska pseudotaktowa	!	!	!LO:TX:t=P:problem=kreska pseudotaktowa	!	!	!LO:TX:t=P:problem=kreska pseudotaktowa	!	!	!	!	!
2G\	.	-na	2G\	.	-na	2e\	ex-	.	2g\	ex-	.	.	.	.
=26-	=26-	=26-	=26-	=26-	=26-	=26-	=26-	=26-	=26-	=26-	=26-	=26-	=26-	=26-
4A\	.	in	4A\	.	in	2c#X\	-cel-	.	2e\	-cel-	.	1a,<	-sis	.
4B-X\	.	.	(4B-X\	.	.	.	.	.	.	.	.	.	.	.
4A\	.	.	4A\	.	.	2c#,<\	-ſis	.	2e,<\	-ſis	.	.	.	.
4G\	.	.	4G\	.	.	.	.	.	.	.	.	.	.	.
!	!	!	!	!	!	!LO:TX:t=P:problem=kreska pseudotaktowa	!	!	!	!	!	!LO:TX:t=P:problem=kreska pseudotaktowa	!	!
4F\	.	.	4F\)	.	.	2d\	in	.	(2f\	in	.	2a\	in	.
!LO:TX:t=P:problem=kreska pseudotaktowa	!	!	!LO:TX:t=P:problem=kreska pseudotaktowa	!	!	!	!	!	!	!	!	!	!	!
4D\	.	.	4D\	.	.	.	.	.	.	.	.	.	.	.
=27-	=27-	=27-	=27-	=27-	=27-	=27-	=27-	=27-	=27-	=27-	=27-	=27-	=27-	=27-
1G	.	ex-	1G	.	ex-	(1B-X	ex-	.	1d)	.	.	1g	ex-	.
!	!	!	!	!	!	!LO:TX:t=P:problem=kreska pseudotaktowa	!	!	!LO:TX:t=P:problem=kreska pseudotaktowa	!	!	!	!	!
2D/	.	-cel-	2D/	.	-cel-	2A\)	.	.	[<2d\	ex-	.	2f/	-cel-	.
=28-	=28-	=28-	=28-	=28-	=28-	=28-	=28-	=28-	=28-	=28-	=28-	=28-	=28-	=28-
*	*	*	*	*	*	*custos:A	*	*	*	*	*	*	*	*
!	!	!	!	!	!	!LO:TX:t=P:problem=kreska pseudotaktowa	!	!	!	!	!	!	!	!
1A	.	.	1A	.	.	1.A	-cel-	.	2d\]	.	.	1.e	.	.
.	.	.	.	.	.	.	.	.	2d\	cel-	.	.	.	.
*custos:D	*	*	*	*	*	*	*	*	*	*	*	*	*	*
!LO:TX:t=P:problem=kreska pseudotaktowa	!	!	!	!	!	!	!	!	!	!	!	!	!	!
!	!	!	!LO:TX:t=P:problem=kreska pseudotaktowa	!	!	!	!	!	!LO:TX:t=P:problem=kreska pseudotaktowa	!	!	!	!	!
2AA/	.	.	2AA/	.	.	.	.	.	2c#X\	.	.	.	.	.
=29-	=29-	=29-	=29-	=29-	=29-	=29-	=29-	=29-	=29-	=29-	=29-	=29-	=29-	=29-
!LO:LB:g=original	!	!	!	!	!	!LO:LB:g=original	!	!	!	!	!	!LO:TX:a:t=P:problem=♯ above	!	!
2D\	.	-sis	2D\	.	-sis	2A,</	-sis.	.	2d\	-ſis	.	2f#X,</	-ſis	.
*clefC4	*	*	*	*	*	*	*	*	*	*	*	*	*	*
4F/	.	.	2r	.	.	(4F/	in	.	2r	.	.	2a\	in	.
4G/	.	.	.	.	.	4G/)	.	.	.	.	.	.	.	.
!	!	!	!LO:TX:t=P:problem=kreska pseudotaktowa	!	!	!	!	!	!LO:TX:t=P:problem=kreska pseudotaktowa	!	!	!LO:TX:t=P:problem=kreska pseudotaktowa	!	!
4A/	.	.	2r	.	.	(4A/	ex-	.	2r	.	.	2a\	ex-	.
!LO:TX:t=P:problem=kreska pseudotaktowa	!	!	!	!	!	!LO:TX:t=P:problem=kreska pseudotaktowa	!	!	!	!	!	!	!	!
4Bny/	.	.	.	.	.	4Bny/)	.	.	.	.	.	.	.	.
=30-	=30-	=30-	=30-	=30-	=30-	=30-	=30-	=30-	=30-	=30-	=30-	=30-	=30-	=30-
!	!	!	!	!	!	!	!	!	!LO:LB:g=original	!	!	!	!	!
2c\	.	.	1.r	.	.	2cny\	-cel-	.	2r	.	.	2.g/	-cel-	.
2c\	.	.	.	.	.	2c,<\	-ſis.	.	(4cny\	in	.	.	.	.
.	.	.	.	.	.	.	.	.	4d\)	.	.	4fny/	.	.
!LO:TX:t=P:problem=kreska pseudotaktowa	!	!	!	!	!	!LO:TX:t=P:problem=kreska pseudotaktowa	!	!	!	!	!	!LO:TX:t=P:problem=kreska pseudotaktowa	!	!
2c\	.	.	.	.	.	2c\	O-	.	(4e\	ex-	.	2e/	.	.
!	!	!	!	!	!	!	!	!	!LO:TX:t=P:problem=kreska pseudotaktowa	!	!	!	!	!
.	.	.	.	.	.	.	.	.	4f\)	.	.	.	.	.
=31-	=31-	=31-	=31-	=31-	=31-	=31-	=31-	=31-	=31-	=31-	=31-	=31-	=31-	=31-
!	!	!	!	!	!	!	!	!	!	!	!	!LO:TX:t=P:problem=kreska pseudotaktowa	!	!
!	!	!	!	!	!	!	!	!	!	!	!	!LO:LB:g=original	!	!
2Bn\	.	.	2r	.	.	1Bn	-san-	.	2g\	-cel-	.	1.d	-sis	.
*clefF4	*	*	*	*	*	*	*	*	*	*	*	*	*	*
(4GG/	.	in	(4GG/	.	in	.	.	.	2g,<\	-ſis	.	.	.	.
4AA/)	.	.	4AA/)	.	.	.	.	.	.	.	.	.	.	.
!	!	!	!	!	!	!LO:TX:t=P:problem=kreska pseudotaktowa	!	!	!LO:TX:t=P:problem=kreska pseudotaktowa	!	!	!	!	!
(4BBn/	.	ex-	(4BBn/	.	ex-	2B\	-na	.	2g\	O-	.	.	.	.
!LO:TX:t=P:problem=kreska pseudotaktowa	!	!	!LO:TX:t=P:problem=kreska pseudotaktowa	!	!	!	!	!	!	!	!	!	!	!
4C/)	.	.	4C/)	.	.	.	.	.	.	.	.	.	.	.
=32-	=32-	=32-	=32-	=32-	=32-	=32-	=32-	=32-	=32-	=32-	=32-	=32-	=32-	=32-
!	!	!	!LO:LB:g=original	!	!	!	!	!	!	!	!	!	!	!
2D\	.	-cel-	2D\	.	-cel-	1.r	.	.	(2.fn\	-san-	.	2r	.	.
2D,<\	.	-sis	2D,<\	.	-sis	.	.	.	.	.	.	(4d/	in	.
.	.	.	.	.	.	.	.	.	4e\	.	.	4e/)	.	.
!LO:TX:t=P:problem=kreska pseudotaktowa	!	!	!LO:TX:t=P:problem=kreska pseudotaktowa	!	!	!	!	!	!LO:TX:t=P:problem=kreska pseudotaktowa	!	!	!	!	!
2D\	.	O-	2D\	.	O-	.	.	.	2d\)	.	.	(4f/	ex-	.
!	!	!	!	!	!	!	!	!	!	!	!	!LO:TX:t=P:problem=kreska pseudotaktowa	!	!
.	.	.	.	.	.	.	.	.	.	.	.	4g/)	.	.
=33-	=33-	=33-	=33-	=33-	=33-	=33-	=33-	=33-	=33-	=33-	=33-	=33-	=33-	=33-
2.C/	.	-san-	(2.C/	.	-san-	2c\	O-	.	2e,<\	-na	.	1a	-cel-	.
.	.	.	.	.	.	2c\	-san-	.	2e\	in	.	.	.	.
4BB/	.	.	4BB/)	.	.	.	.	.	.	.	.	.	.	.
!LO:TX:t=P:problem=kreska pseudotaktowa	!	!	!LO:TX:t=P:problem=kreska pseudotaktowa	!	!	!LO:TX:t=P:problem=kreska pseudotaktowa	!	!	!LO:TX:t=P:problem=kreska pseudotaktowa	!	!	!LO:TX:t=P:problem=kreska pseudotaktowa	!	!
2AA/	.	-na	2AA,</	.	-na	2c\	-na	.	2e\	ex-	.	2a\	-ſis	.
=34-	=34-	=34-	=34-	=34-	=34-	=34-	=34-	=34-	=34-	=34-	=34-	=34-	=34-	=34-
1E	.	in	1E	.	in	2B\	in	.	1e	-cel-	.	1g#X	in	.
.	.	.	.	.	.	2B\	ex-	.	.	.	.	.	.	.
!	!	!	!LO:TX:t=P:problem=kreska pseudotaktowa	!	!	!	!	!	!LO:TX:t=P:problem=kreska pseudotaktowa	!	!	!LO:TX:t=P:problem=kreska pseudotaktowa	!	!
2F\	.	ex-	2F\	.	ex-	(4A\	cel-	.	2c/	.	.	[<2a\	ex-	.
.	.	.	.	.	.	4c\)	.	.	.	.	.	.	.	.
=35-	=35-	=35-	=35-	=35-	=35-	=35-	=35-	=35-	=35-	=35-	=35-	=35-	=35-	=35-
!	!	!	!	!	!	!LO:TX:t=P:problem=kreska pseudotaktowa	!	!	!	!	!	!	!	!
1D	.	-cel-	1D	.	-cel-	1.Bn	.	.	1f	.	.	1a]	.	.
!LO:TX:t=P:problem=kreska pseudotaktowa	!	!	!LO:TX:t=P:problem=kreska pseudotaktowa	!	!	!	!	!	!LO:TX:t=P:problem=kreska pseudotaktowa	!	!	!LO:TX:t=P:problem=kreska pseudotaktowa	!	!
2E\	.	.	2E\	.	.	.	.	.	2e\	.	.	2g#X\	-cel-	.
=36-	=36-	=36-	=36-	=36-	=36-	=36-	=36-	=36-	=36-	=36-	=36-	=36-	=36-	=36-
2AA,</	.	-sis	2AA,</	.	-sis	2c,<\	-sis	.	2e,<\	-sis	.	2a,<\	-ſis	.
2D/	.	in	2D/	.	in	2d\	in	.	2f\	in	.	2a\	in	.
!LO:TX:t=P:problem=kreska pseudotaktowa	!	!	!LO:TX:t=P:problem=kreska pseudotaktowa	!	!	!	!	!	!LO:TX:t=P:problem=kreska pseudotaktowa	!	!	!LO:TX:t=P:problem=kreska pseudotaktowa	!	!
2C#X/	.	ex-	2C#X/	.	ex-	2e\	ex-	.	2e\	ex-	.	2a\	ex-	.
=37-	=37-	=37-	=37-	=37-	=37-	=37-	=37-	=37-	=37-	=37-	=37-	=37-	=37-	=37-
!LO:TX:a:t=3	!	!	!LO:TX:a:t=3.	!	!	!	!	!	!	!	!	!	!	!
2%9D	.	-cel-	2%9D	.	-cel-	(1.d	-cel-	.	4f\	-cel-	.	4a\	-cel-	.
.	.	.	.	.	.	.	.	.	4e\	.	.	4gny\	.	.
.	.	.	.	.	.	.	.	.	4f\	.	.	4a\	.	.
.	.	.	.	.	.	.	.	.	4d\	.	.	4f\	.	.
.	.	.	.	.	.	.	.	.	4e\	.	.	4g\	.	.
!	!	!	!	!	!	!	!	!	!LO:TX:t=P:problem=kreska pseudotaktowa	!	!	!LO:TX:t=P:problem=kreska pseudotaktowa	!	!
.	.	.	.	.	.	.	.	.	4f\	.	.	4a\	.	.
=38-	=38-	=38-	=38-	=38-	=38-	=38-	=38-	=38-	=38-	=38-	=38-	=38-	=38-	=38-
.	.	.	.	.	.	1.D)	.	.	4g\	.	.	4b-X\	.	.
.	.	.	.	.	.	.	.	.	4f\	.	.	4a\	.	.
.	.	.	.	.	.	.	.	.	4g\	.	.	4b-\	.	.
.	.	.	.	.	.	.	.	.	4e\	.	.	4g\	.	.
.	.	.	.	.	.	.	.	.	4f\	.	.	4a\	.	.
!	!	!	!	!	!	!	!	!	!LO:TX:t=P:problem=kreska pseudotaktowa	!	!	!LO:TX:t=P:problem=kreska pseudotaktowa	!	!
.	.	.	.	.	.	.	.	.	4g\	.	.	4b-\	.	.
=39-	=39-	=39-	=39-	=39-	=39-	=39-	=39-	=39-	=39-	=39-	=39-	=39-	=39-	=39-
.	.	.	.	.	.	1.d	.	.	4f\	.	.	4a\	.	.
.	.	.	.	.	.	.	.	.	4e\	.	.	4g\	.	.
.	.	.	.	.	.	.	.	.	4f\	.	.	4a\	.	.
.	.	.	.	.	.	.	.	.	4d\	.	.	4f\	.	.
.	.	.	.	.	.	.	.	.	4e\	.	.	4g\	.	.
!	!	!	!	!	!	!	!	!	!LO:TX:t=P:problem=kreska pseudotaktowa	!	!	!LO:TX:t=P:problem=kreska pseudotaktowa	!	!
.	.	.	.	.	.	.	.	.	4f\	.	.	4a\	.	.
=40-	=40-	=40-	=40-	=40-	=40-	=40-	=40-	=40-	=40-	=40-	=40-	=40-	=40-	=40-
2AA,</	.	ſis	2AA,</	.	sis.	2c#X,<\	-sis.	.	2e\	.	.	2a\	.	.
2A\	.	O-	2A\	.	O-	2c#\	in	.	2e,<\	-sis	.	2cc#X,<\	-sis	.
*	*	*	*	*	*	*	*	*	*	*	*	*custos:d	*	*
!	!	!	!	!	!	!	!	!	!	!	!	!LO:TX:t=P:problem=kreska pseudotaktowa	!	!
!LO:TX:t=P:problem=kreska pseudotaktowa	!	!	!LO:TX:t=P:problem=kreska pseudotaktowa	!	!	!	!	!	!LO:TX:t=P:problem=kreska pseudotaktowa	!	!	!	!	!
2G\	.	.	2G\	6	.	2A\	ex-	.	2e\	o-	.	2cc#\	O-	.
=41-	=41-	=41-	=41-	=41-	=41-	=41-	=41-	=41-	=41-	=41-	=41-	=41-	=41-	=41-
!	!	!	!	!	!	!	!	!	!LO:LB:g=original	!	!	!LO:LB:g=original	!	!
2.F\	.	-san-	2.F\	6	-san-	1A	-cel-	.	2.f\	-san-	.	2.dd\	-san-	.
4E\	.	.	4E\	.	.	.	.	.	4g\	-na	.	4ee\	-na	.
!	!	!	!LO:TX:t=P:problem=kreska pseudotaktowa	!	!	!LO:TX:t=P:problem=kreska pseudotaktowa	!	!	!LO:TX:t=P:problem=kreska pseudotaktowa	!	!	!LO:TX:t=P:problem=kreska pseudotaktowa	!	!
2D\	.	-na	2D\	.	-na	[<2d\	.	.	2a\	in	.	2ff\	in	.
=42-	=42-	=42-	=42-	=42-	=42-	=42-	=42-	=42-	=42-	=42-	=42-	=42-	=42-	=42-
2G\	.	in	2G\	.	in	1d]	.	.	2g\	ex-	.	2eet<\	ex-	.
2A\	.	ex-	2A\	.	ex-	.	.	.	1e	-cel-	.	1ee	-cel-	.
!	!	!	!	!	!	!LO:TX:a:t=P:problem=♯ above	!	!	!	!	!	!	!	!
2AA/	.	-cel-	2AA/	.	-cel-	2c#X\	.	.	.	.	.	.	.	.
=43-	=43-	=43-	=43-	=43-	=43-	=43-	=43-	=43-	=43-	=43-	=43-	=43-	=43-	=43-
0.D;>	.	-ſis	0.D;	.	-ſis.	0.d;>	-ſis.	.	0.f#X;	-ſis.	.	0.dd	-ſis.	.
=44||-	=44||-	=44||-	=44||-	=44||-	=44||-	=44||-	=44||-	=44||-	=44||-	=44||-	=44||-	=44||-	=44||-	=44||-
*M2/1	*	*	*M2/1	*	*	*M2/1	*	*	*M2/1	*	*	*M2/1	*	*
*met(C|)	*	*	*met(C|)	*	*	*met(C|)	*	*	*met(C|)	*	*	*met(C|)	*	*
!LO:LB:g=original	!	!	!LO:LB:g=original	!	!	!LO:LB:g=original	!	!	!	!	!	!	!	!
1F	.	Be-	1F	.	Be-	1cny	Be-	.	2r	.	.	1a	Be-	.
.	.	.	.	.	.	.	.	.	1fn	Be-	.	.	.	.
!	!	!	!	!	!	!	!	!	!	!	!	!LO:TX:t=P:problem=kreska pseudotaktowa	!	!
2G\	.	-ne-	2G\	.	-ne-	2B-X\	.	.	.	.	.	1b-X	-ne-	.
!LO:TX:t=P:problem=kreska pseudotaktowa	!	!	!LO:TX:t=P:problem=kreska pseudotaktowa	!	!	!LO:TX:t=P:problem=kreska pseudotaktowa	!	!	!LO:TX:t=P:problem=kreska pseudotaktowa	!	!	!	!	!
2G\	.	-di-	2G\	.	-di-	2G/	-ne-	.	2e\	-ne-	.	.	.	.
=45-	=45-	=45-	=45-	=45-	=45-	=45-	=45-	=45-	=45-	=45-	=45-	=45-	=45-	=45-
2A,<\	.	-ctus	2A\	.	-ctus	2c\	-di-	.	2f\	-di-	.	2a\	-di-	.
!LO:TX:t=P:problem=kreska pseudotaktowa	!	!	!LO:TX:t=P:problem=kreska pseudotaktowa	!	!	!	!	!	!	!	!	!	!	!
2F\	.	qui	2F\	.	qui	4c\	-ct(us)	.	4f,<\	-ctus	.	4a,<\	-ctus	.
!	!	!	!	!	!	!LO:TX:t=P:problem=kreska pseudotaktowa	!	!	!LO:TX:t=P:problem=kreska pseudotaktowa	!	!	!LO:TX:t=P:problem=kreska pseudotaktowa	!	!
.	.	.	.	.	.	4c\	qui	.	4f\	qui	.	4a\	qui	.
!	!	!	!	!	!	!LO:TX:t=P:problem=kreska pseudotaktowa	!	!	!	!	!	!	!	!
1B-X	.	Ve-	1B-X	.	Ve-	1d	ve-	.	1f	ve-	.	1b-X	ve-	.
=46-	=46-	=46-	=46-	=46-	=46-	=46-	=46-	=46-	=46-	=46-	=46-	=46-	=46-	=46-
2A,<\	.	-nit	2A,<\	.	-nit	2c,<\	-nit	.	2f,<\	-nit	.	2ccny,<\	-nit	.
!LO:TX:t=P:problem=kreska pseudotaktowa	!	!	!LO:TX:t=P:problem=kreska pseudotaktowa	!	!	!LO:TX:t=P:problem=kreska pseudotaktowa	!	!	!LO:TX:t=P:problem=kreska pseudotaktowa	!	!	!LO:TX:t=P:problem=kreska pseudotaktowa	!	!
2F\	.	in	2F\	.	in	2c\	in	.	2f\	in	.	2a\	in	.
2B-X\	.	No-	2B-X\	.	No-	2d\	No-	.	1f	No-	.	2b-X\	No-	.
!LO:TX:t=P:problem=kreska pseudotaktowa	!	!	!LO:TX:t=P:problem=kreska pseudotaktowa	!	!	!LO:TX:t=P:problem=kreska pseudotaktowa	!	!	!	!	!	!LO:TX:t=P:problem=kreska pseudotaktowa	!	!
2A\	.	-mi-	2A\	.	-mi-	2f\	-mi-	.	.	.	.	2cc\	-mi-	.
=47-	=47-	=47-	=47-	=47-	=47-	=47-	=47-	=47-	=47-	=47-	=47-	=47-	=47-	=47-
2G\	.	-ne	(2G\	.	-ne	2e\	-ne	.	2g\	-mi-	.	(2b-X\	-ne	.
!LO:TX:t=P:problem=kreska pseudotaktowa	!	!	!LO:TX:t=P:problem=kreska pseudotaktowa	!	!	!LO:TX:t=P:problem=kreska pseudotaktowa	!	!	!LO:TX:t=P:problem=kreska pseudotaktowa	!	!	!LO:TX:t=P:problem=kreska pseudotaktowa	!	!
2F\	.	.	2F\)	.	.	2f\	.	.	2a\	-ne	.	2a\)	.	.
2E\	.	Do-	2E\	.	Do-	2c\	Do-	.	2e\	Do-	.	2g/	Do-	.
2D\	.	-mi-	2D/	.	-mi-	2Bn\	-mi-	.	2f\	-mi-	.	2f/	-mi-	.
=48-	=48-	=48-	=48-	=48-	=48-	=48-	=48-	=48-	=48-	=48-	=48-	=48-	=48-	=48-
!LO:TX:t=P:problem=kreska pseudotaktowa	!	!	!LO:TX:t=P:problem=kreska pseudotaktowa	!	!	!LO:TX:t=P:problem=kreska pseudotaktowa	!	!	!LO:TX:t=P:problem=kreska pseudotaktowa	!	!	!	!	!
1Cny	.	-ni	1Cny	.	-ni	1c	-ni	.	1g	-ni	.	2e,</	-ni	.
!	!	!	!	!	!	!	!	!	!	!	!	!LO:TX:t=P:problem=kreska pseudotaktowa	!	!
.	.	.	.	.	.	.	.	.	.	.	.	2g/	in	.
!	!	!	!	!	!	!	!	!	!LO:LB:g=original	!	!	!	!	!
2r	.	.	2r	.	.	2r	.	.	2r	.	.	2cc\	No-	.
!	!	!	!	!	!	!LO:TX:t=P:problem=kreska pseudotaktowa	!	!	!	!	!	!LO:TX:t=P:problem=kreska pseudotaktowa	!	!
2AA/	.	in	2AA/	.	in	2e\	in	.	1a\	in	.	2cc#X\	-mi-	.
=49-	=49-	=49-	=49-	=49-	=49-	=49-	=49-	=49-	=49-	=49-	=49-	=49-	=49-	=49-
!LO:TX:t=P:problem=kreska pseudotaktowa	!	!	!	!	!	!	!	!	!	!	!	!LO:LB:g=original	!	!
1D	.	No-	1D	.	No-	2f\	No-	.	.	.	.	4dd\	-ne	.
.	.	.	.	.	.	.	.	.	.	.	.	4d/	.	.
!	!	!	!	!	!	!	!	!	!LO:TX:t=P:problem=kreska pseudotaktowa	!	!	!	!	!
.	.	.	.	.	.	1d	-mi-	.	2f\	.	.	1a	Do-	.
2G\	.	-mi-	2G\	.	-mi-	.	.	.	2.b-X\	No-	.	.	.	.
!	!	!	!LO:TX:t=P:problem=kreska pseudotaktowa	!	!	!	!	!	!	!	!	!	!	!
2G\	.	-ne	2G\	.	-ne	4e\	-ne	.	.	.	.	1g\	.	.
!	!	!	!	!	!	!LO:TX:t=P:problem=kreska pseudotaktowa	!	!	!	!	!	!	!	!
.	.	.	.	.	.	4d\	.	.	4b-\	-mi-	.	.	.	.
=50-	=50-	=50-	=50-	=50-	=50-	=50-	=50-	=50-	=50-	=50-	=50-	=50-	=50-	=50-
1.A	.	Do-	1.A	.	Do-	2c#X\	Do-	.	2e,<\	-ne	.	.	.	.
!	!	!	!	!	!	!	!	!	!	!	!	!LO:TX:t=P:problem=kreska pseudotaktowa	!	!
.	.	.	.	.	.	2d\	.	.	1d	Do-	.	2f/	.	.
.	.	.	.	.	.	2.A\	.	.	.	.	.	2.e/	.	.
2AA/	.	-mi-	2AA/	.	-mi-	.	.	.	2c#X\	-mi-	.	.	.	.
.	.	.	.	.	.	4A\	-mi-	.	.	.	.	4e/	-mi-	.
=51-	=51-	=51-	=51-	=51-	=51-	=51-	=51-	=51-	=51-	=51-	=51-	=51-	=51-	=51-
*	*	*	*	*	*	*	*	*	*custos:f	*	*	*	*	*
!LO:TX:b:t=Osanna\nda Capo	!	!	!LO:TX:b:t=3/2 Osanna da Capo	!	!	!LO:TX:b:t=3/2 Osanna da Capo	!	!	!LO:TX:a:t=3/2 Osanna da Capo	!	!	!LO:TX:b:t=Osanna da Capo.	!	!
0D;>	.	-ni	0D;>	.	-ni	0A;>	-ni.	.	0d;>	-ni.	.	0f#X;	-ni.	.
=-	=-	=-	=-	=-	=-	=-	=-	=-	=-	=-	=-	=-	=-	=-
*-	*-	*-	*-	*-	*-	*-	*-	*-	*-	*-	*-	*-	*-	*-
!!!system-decoration: [(s1,s2,s3,s4)]s5
!!!RDF**kern: < = below
!!!RDF**kern: > = above
!!!RDF**kern: | = vertical stroke
!!!ENC: Marta Chmielewska
!!!END: 2021-08-07
!!!ENC: Krzysztof Stępień
!!!END: 2021-07-14
